icons/modern/mushroom.svg

<svg width="32" height="32" viewBox="0 0 32 32" fill="none" xmlns="http://www.w3.org/2000/svg">
<path d="M10.9915 25.443L13.5 18.5L18.5938 18.5L20.8311 25.3566C21.3861 26.7009 20.4182 28.1875 18.9878 28.1875H12.8682C11.4767 28.1875 10.5105 26.7745 10.9915 25.443Z" fill="url(#paint0_linear_18_29655)"/>
<path d="M10.9915 25.443L13.5 18.5L18.5938 18.5L20.8311 25.3566C21.3861 26.7009 20.4182 28.1875 18.9878 28.1875H12.8682C11.4767 28.1875 10.5105 26.7745 10.9915 25.443Z" fill="url(#paint1_linear_18_29655)"/>
<path d="M10.9915 25.443L13.5 18.5L18.5938 18.5L20.8311 25.3566C21.3861 26.7009 20.4182 28.1875 18.9878 28.1875H12.8682C11.4767 28.1875 10.5105 26.7745 10.9915 25.443Z" fill="url(#paint2_linear_18_29655)"/>
<path d="M10.9915 25.443L13.5 18.5L18.5938 18.5L20.8311 25.3566C21.3861 26.7009 20.4182 28.1875 18.9878 28.1875H12.8682C11.4767 28.1875 10.5105 26.7745 10.9915 25.443Z" fill="url(#paint3_radial_18_29655)"/>
<path d="M4 16C4 13.7292 4.63072 11.6058 5.72653 9.79528L9.5 8L12.7584 4.44294C13.7896 4.15433 14.8768 4 16 4C17.626 4 19.1764 4.32338 20.5905 4.90934L23.5 10.5L27.9552 14.9562C27.9849 15.3002 28 15.6483 28 16V18C28 19.1046 27.1046 20 26 20H6C4.89543 20 4 19.1046 4 18V16Z" fill="url(#paint4_radial_18_29655)"/>
<path d="M4 16C4 13.7292 4.63072 11.6058 5.72653 9.79528L9.5 8L12.7584 4.44294C13.7896 4.15433 14.8768 4 16 4C17.626 4 19.1764 4.32338 20.5905 4.90934L23.5 10.5L27.9552 14.9562C27.9849 15.3002 28 15.6483 28 16V18C28 19.1046 27.1046 20 26 20H6C4.89543 20 4 19.1046 4 18V16Z" fill="url(#paint5_radial_18_29655)"/>
<path d="M4 16C4 13.7292 4.63072 11.6058 5.72653 9.79528L9.5 8L12.7584 4.44294C13.7896 4.15433 14.8768 4 16 4C17.626 4 19.1764 4.32338 20.5905 4.90934L23.5 10.5L27.9552 14.9562C27.9849 15.3002 28 15.6483 28 16V18C28 19.1046 27.1046 20 26 20H6C4.89543 20 4 19.1046 4 18V16Z" fill="url(#paint6_radial_18_29655)"/>
<path d="M4 16C4 13.7292 4.63072 11.6058 5.72653 9.79528L9.5 8L12.7584 4.44294C13.7896 4.15433 14.8768 4 16 4C17.626 4 19.1764 4.32338 20.5905 4.90934L23.5 10.5L27.9552 14.9562C27.9849 15.3002 28 15.6483 28 16V18C28 19.1046 27.1046 20 26 20H6C4.89543 20 4 19.1046 4 18V16Z" fill="url(#paint7_radial_18_29655)"/>
<path d="M4 16C4 13.7292 4.63072 11.6058 5.72653 9.79528L9.5 8L12.7584 4.44294C13.7896 4.15433 14.8768 4 16 4C17.626 4 19.1764 4.32338 20.5905 4.90934L23.5 10.5L27.9552 14.9562C27.9849 15.3002 28 15.6483 28 16V18C28 19.1046 27.1046 20 26 20H6C4.89543 20 4 19.1046 4 18V16Z" fill="url(#paint8_radial_18_29655)"/>
<path d="M12.7893 4.43433C12.8422 4.7246 12.87 5.02385 12.87 5.33003C12.87 8.07003 10.64 10.29 7.89996 10.3C7.12279 10.3 6.3848 10.1172 5.72705 9.79433C7.29287 7.20782 9.80796 5.26015 12.7893 4.43433Z" fill="#FFBCBD"/>
<path d="M12.7893 4.43433C12.8422 4.7246 12.87 5.02385 12.87 5.33003C12.87 8.07003 10.64 10.29 7.89996 10.3C7.12279 10.3 6.3848 10.1172 5.72705 9.79433C7.29287 7.20782 9.80796 5.26015 12.7893 4.43433Z" fill="url(#paint9_radial_18_29655)"/>
<path d="M20.5726 4.90198C19.8506 5.96328 19.4301 7.24499 19.4301 8.63005C19.4301 12.2901 22.4001 15.26 26.0601 15.26C26.7191 15.26 27.3566 15.1631 27.9575 14.9833C27.5744 10.4165 24.6338 6.57708 20.5726 4.90198Z" fill="#FFE1E9"/>
<path d="M20.5726 4.90198C19.8506 5.96328 19.4301 7.24499 19.4301 8.63005C19.4301 12.2901 22.4001 15.26 26.0601 15.26C26.7191 15.26 27.3566 15.1631 27.9575 14.9833C27.5744 10.4165 24.6338 6.57708 20.5726 4.90198Z" fill="url(#paint10_radial_18_29655)"/>
<path d="M14.94 17.0401C16.4532 17.0401 17.68 15.8133 17.68 14.3001C17.68 12.7868 16.4532 11.5601 14.94 11.5601C13.4267 11.5601 12.2 12.7868 12.2 14.3001C12.2 15.8133 13.4267 17.0401 14.94 17.0401Z" fill="url(#paint11_radial_18_29655)"/>
<defs>
<linearGradient id="paint0_linear_18_29655" x1="15.9282" y1="17.9016" x2="15.9282" y2="28.1875" gradientUnits="userSpaceOnUse">
<stop stop-color="#F4869C"/>
<stop offset="0.272032" stop-color="#FA89A2"/>
<stop offset="0.426097" stop-color="#FFAAAD"/>
<stop offset="0.708548" stop-color="#FFBDAF"/>
<stop offset="0.881871" stop-color="#FFB6C3"/>
<stop offset="1" stop-color="#FF92C0"/>
</linearGradient>
<linearGradient id="paint1_linear_18_29655" x1="10.8665" y1="24.4934" x2="12.1875" y2="24.9687" gradientUnits="userSpaceOnUse">
<stop stop-color="#DB937A"/>
<stop offset="1" stop-color="#E39A81" stop-opacity="0"/>
</linearGradient>
<linearGradient id="paint2_linear_18_29655" x1="21.5625" y1="22.1875" x2="19.25" y2="23.3438" gradientUnits="userSpaceOnUse">
<stop offset="0.389189" stop-color="#D26982"/>
<stop offset="1" stop-color="#DC7388" stop-opacity="0"/>
</linearGradient>
<radialGradient id="paint3_radial_18_29655" cx="0" cy="0" r="1" gradientUnits="userSpaceOnUse" gradientTransform="translate(18.0625 24.8125) rotate(87.2073) scale(2.56555 4.69107)">
<stop stop-color="#FFD2BA"/>
<stop offset="1" stop-color="#FFD6C1" stop-opacity="0"/>
</radialGradient>
<radialGradient id="paint4_radial_18_29655" cx="0" cy="0" r="1" gradientUnits="userSpaceOnUse" gradientTransform="translate(16 13.625) rotate(90) scale(15.375 15.6471)">
<stop offset="0.546667" stop-color="#FF465A"/>
<stop offset="1" stop-color="#AF1816"/>
</radialGradient>
<radialGradient id="paint5_radial_18_29655" cx="0" cy="0" r="1" gradientUnits="userSpaceOnUse" gradientTransform="translate(19.4375 12) rotate(111.922) scale(5.52445 5.89112)">
<stop stop-color="#FF6783"/>
<stop offset="1" stop-color="#FF6783" stop-opacity="0"/>
</radialGradient>
<radialGradient id="paint6_radial_18_29655" cx="0" cy="0" r="1" gradientUnits="userSpaceOnUse" gradientTransform="translate(18.25 8.625) rotate(81.3359) scale(13.2765 34.6434)">
<stop offset="0.595116" stop-color="#FB3E7B" stop-opacity="0"/>
<stop offset="0.958027" stop-color="#CF2FAA"/>
</radialGradient>
<radialGradient id="paint7_radial_18_29655" cx="0" cy="0" r="1" gradientUnits="userSpaceOnUse" gradientTransform="translate(8.8125 15.5) rotate(36.1932) scale(6.35044 6.79696)">
<stop stop-color="#FF5152"/>
<stop offset="0.544242" stop-color="#FE5152" stop-opacity="0"/>
</radialGradient>
<radialGradient id="paint8_radial_18_29655" cx="0" cy="0" r="1" gradientUnits="userSpaceOnUse" gradientTransform="translate(9.4375 7.1875) rotate(65.8545) scale(7.94512 7.75891)">
<stop stop-color="#FF3942"/>
<stop offset="0.755941" stop-color="#FF3A43" stop-opacity="0"/>
</radialGradient>
<radialGradient id="paint9_radial_18_29655" cx="0" cy="0" r="1" gradientUnits="userSpaceOnUse" gradientTransform="translate(11.1875 9.0625) rotate(144.597) scale(9.27804 5.09653)">
<stop offset="0.135737" stop-color="#FFBDC0"/>
<stop offset="0.562036" stop-color="#E8A7A1"/>
<stop offset="0.795334" stop-color="#BB867E"/>
</radialGradient>
<radialGradient id="paint10_radial_18_29655" cx="0" cy="0" r="1" gradientUnits="userSpaceOnUse" gradientTransform="translate(20.0625 12.5625) rotate(41.5613) scale(10.5514 8.29956)">
<stop offset="0.0496687" stop-color="#FFE0EA"/>
<stop offset="0.635682" stop-color="#FFE0DE"/>
<stop offset="0.888045" stop-color="#FFBFBB"/>
<stop offset="1" stop-color="#F5BCAE"/>
</radialGradient>
<radialGradient id="paint11_radial_18_29655" cx="0" cy="0" r="1" gradientUnits="userSpaceOnUse" gradientTransform="translate(16.9375 14.3001) rotate(159.141) scale(6.35394 6.35394)">
<stop stop-color="#FFCDEB"/>
<stop offset="0.72775" stop-color="#FFB8D9"/>
</radialGradient>
</defs>
</svg>

<svg width="32" height="32" fill="none" xmlns="http://www.w3.org/2000/svg"><path d="M10.992 25.443 13.5 18.5h5.094l2.237 6.857c.555 1.344-.413 2.83-1.843 2.83h-6.12c-1.391 0-2.357-1.413-1.877-2.744Z" fill="url(#a)"/><path d="M10.992 25.443 13.5 18.5h5.094l2.237 6.857c.555 1.344-.413 2.83-1.843 2.83h-6.12c-1.391 0-2.357-1.413-1.877-2.744Z" fill="url(#b)"/><path d="M10.992 25.443 13.5 18.5h5.094l2.237 6.857c.555 1.344-.413 2.83-1.843 2.83h-6.12c-1.391 0-2.357-1.413-1.877-2.744Z" fill="url(#c)"/><path d="M10.992 25.443 13.5 18.5h5.094l2.237 6.857c.555 1.344-.413 2.83-1.843 2.83h-6.12c-1.391 0-2.357-1.413-1.877-2.744Z" fill="url(#d)"/><path d="M4 16c0-2.27.63-4.394 1.727-6.205L9.5 8l3.258-3.557A12.011 12.011 0 0 1 16 4c1.626 0 3.176.323 4.59.91l2.91 5.59 4.455 4.456c.03.344.045.692.045 1.044v2a2 2 0 0 1-2 2H6a2 2 0 0 1-2-2v-2Z" fill="url(#e)"/><path d="M4 16c0-2.27.63-4.394 1.727-6.205L9.5 8l3.258-3.557A12.011 12.011 0 0 1 16 4c1.626 0 3.176.323 4.59.91l2.91 5.59 4.455 4.456c.03.344.045.692.045 1.044v2a2 2 0 0 1-2 2H6a2 2 0 0 1-2-2v-2Z" fill="url(#f)"/><path d="M4 16c0-2.27.63-4.394 1.727-6.205L9.5 8l3.258-3.557A12.011 12.011 0 0 1 16 4c1.626 0 3.176.323 4.59.91l2.91 5.59 4.455 4.456c.03.344.045.692.045 1.044v2a2 2 0 0 1-2 2H6a2 2 0 0 1-2-2v-2Z" fill="url(#g)"/><path d="M4 16c0-2.27.63-4.394 1.727-6.205L9.5 8l3.258-3.557A12.011 12.011 0 0 1 16 4c1.626 0 3.176.323 4.59.91l2.91 5.59 4.455 4.456c.03.344.045.692.045 1.044v2a2 2 0 0 1-2 2H6a2 2 0 0 1-2-2v-2Z" fill="url(#h)"/><path d="M4 16c0-2.27.63-4.394 1.727-6.205L9.5 8l3.258-3.557A12.011 12.011 0 0 1 16 4c1.626 0 3.176.323 4.59.91l2.91 5.59 4.455 4.456c.03.344.045.692.045 1.044v2a2 2 0 0 1-2 2H6a2 2 0 0 1-2-2v-2Z" fill="url(#i)"/><path d="M12.79 4.434c.052.29.08.59.08.896 0 2.74-2.23 4.96-4.97 4.97a4.92 4.92 0 0 1-2.173-.506 12.026 12.026 0 0 1 7.062-5.36Z" fill="#FFBCBD"/><path d="M12.79 4.434c.052.29.08.59.08.896 0 2.74-2.23 4.96-4.97 4.97a4.92 4.92 0 0 1-2.173-.506 12.026 12.026 0 0 1 7.062-5.36Z" fill="url(#j)"/><path d="M20.573 4.902A6.6 6.6 0 0 0 19.43 8.63a6.632 6.632 0 0 0 8.527 6.353c-.383-4.567-3.323-8.406-7.384-10.081Z" fill="#FFE1E9"/><path d="M20.573 4.902A6.6 6.6 0 0 0 19.43 8.63a6.632 6.632 0 0 0 8.527 6.353c-.383-4.567-3.323-8.406-7.384-10.081Z" fill="url(#k)"/><path d="M14.94 17.04a2.74 2.74 0 1 0 0-5.48 2.74 2.74 0 0 0 0 5.48Z" fill="url(#l)"/><defs><radialGradient id="d" cx="0" cy="0" r="1" gradientUnits="userSpaceOnUse" gradientTransform="matrix(.125 2.5625 -4.6855 .22856 18.063 24.813)"><stop stop-color="#FFD2BA"/><stop offset="1" stop-color="#FFD6C1" stop-opacity="0"/></radialGradient><radialGradient id="e" cx="0" cy="0" r="1" gradientUnits="userSpaceOnUse" gradientTransform="matrix(0 15.375 -15.6471 0 16 13.625)"><stop offset=".547" stop-color="#FF465A"/><stop offset="1" stop-color="#AF1816"/></radialGradient><radialGradient id="f" cx="0" cy="0" r="1" gradientUnits="userSpaceOnUse" gradientTransform="matrix(-2.06252 5.125 -5.46515 -2.19941 19.438 12)"><stop stop-color="#FF6783"/><stop offset="1" stop-color="#FF6783" stop-opacity="0"/></radialGradient><radialGradient id="g" cx="0" cy="0" r="1" gradientUnits="userSpaceOnUse" gradientTransform="matrix(2 13.125 -34.24807 5.21873 18.25 8.625)"><stop offset=".595" stop-color="#FB3E7B" stop-opacity="0"/><stop offset=".958" stop-color="#CF2FAA"/></radialGradient><radialGradient id="h" cx="0" cy="0" r="1" gradientUnits="userSpaceOnUse" gradientTransform="matrix(5.125 3.75 -4.01367 5.48535 8.813 15.5)"><stop stop-color="#FF5152"/><stop offset=".544" stop-color="#FE5152" stop-opacity="0"/></radialGradient><radialGradient id="i" cx="0" cy="0" r="1" gradientUnits="userSpaceOnUse" gradientTransform="matrix(3.25 7.25 -7.08008 3.17382 9.438 7.188)"><stop stop-color="#FF3942"/><stop offset=".756" stop-color="#FF3A43" stop-opacity="0"/></radialGradient><radialGradient id="j" cx="0" cy="0" r="1" gradientUnits="userSpaceOnUse" gradientTransform="matrix(-7.5625 5.37499 -2.95254 -4.15417 11.188 9.063)"><stop offset=".136" stop-color="#FFBDC0"/><stop offset=".562" stop-color="#E8A7A1"/><stop offset=".795" stop-color="#BB867E"/></radialGradient><radialGradient id="k" cx="0" cy="0" r="1" gradientUnits="userSpaceOnUse" gradientTransform="rotate(41.561 -6.521 32.716) scale(10.5514 8.29956)"><stop offset=".05" stop-color="#FFE0EA"/><stop offset=".636" stop-color="#FFE0DE"/><stop offset=".888" stop-color="#FFBFBB"/><stop offset="1" stop-color="#F5BCAE"/></radialGradient><radialGradient id="l" cx="0" cy="0" r="1" gradientUnits="userSpaceOnUse" gradientTransform="rotate(159.141 7.153 8.709) scale(6.35394)"><stop stop-color="#FFCDEB"/><stop offset=".728" stop-color="#FFB8D9"/></radialGradient><linearGradient id="a" x1="15.928" y1="17.902" x2="15.928" y2="28.188" gradientUnits="userSpaceOnUse"><stop stop-color="#F4869C"/><stop offset=".272" stop-color="#FA89A2"/><stop offset=".426" stop-color="#FFAAAD"/><stop offset=".709" stop-color="#FFBDAF"/><stop offset=".882" stop-color="#FFB6C3"/><stop offset="1" stop-color="#FF92C0"/></linearGradient><linearGradient id="b" x1="10.867" y1="24.493" x2="12.188" y2="24.969" gradientUnits="userSpaceOnUse"><stop stop-color="#DB937A"/><stop offset="1" stop-color="#E39A81" stop-opacity="0"/></linearGradient><linearGradient id="c" x1="21.563" y1="22.188" x2="19.25" y2="23.344" gradientUnits="userSpaceOnUse"><stop offset=".389" stop-color="#D26982"/><stop offset="1" stop-color="#DC7388" stop-opacity="0"/></linearGradient></defs></svg>
